svg/SJJB-OpenStreetMapIcons/money/atm.svg

<?xml version="1.0" encoding="UTF-8" standalone="no"?>
<!-- Created with Inkscape (http://www.inkscape.org/) -->
<svg
   xmlns:dc="http://purl.org/dc/elements/1.1/"
   xmlns:cc="http://creativecommons.org/ns#"
   xmlns:rdf="http://www.w3.org/1999/02/22-rdf-syntax-ns#"
   xmlns:svg="http://www.w3.org/2000/svg"
   xmlns="http://www.w3.org/2000/svg"
   xmlns:sodipodi="http://sodipodi.sourceforge.net/DTD/sodipodi-0.dtd"
   xmlns:inkscape="http://www.inkscape.org/namespaces/inkscape"
   version="1.0"
   width="580"
   height="580"
   id="svg2"
   sodipodi:version="0.32"
   inkscape:version="0.46"
   sodipodi:docname="amenity_atm.svg"
   sodipodi:docbase="s:\Data\FacilityIcons"
   inkscape:output_extension="org.inkscape.output.svg.inkscape">
  <metadata
     id="metadata2975">
    <rdf:RDF>
      <cc:Work
         rdf:about="">
        <dc:format>image/svg+xml</dc:format>
        <dc:type
           rdf:resource="http://purl.org/dc/dcmitype/StillImage" />
			  <cc:license
           rdf:resource="http://web.resource.org/cc/PublicDomain" />
        <dc:language>en</dc:language>
      </cc:Work>
    </rdf:RDF>
  </metadata>
  <sodipodi:namedview
     inkscape:window-height="1005"
     inkscape:window-width="1280"
     inkscape:pageshadow="2"
     inkscape:pageopacity="0.0"
     guidetolerance="10.0"
     gridtolerance="10.0"
     objecttolerance="10.0"
     borderopacity="1.0"
     bordercolor="#666666"
     pagecolor="#ffffff"
     id="base"
     inkscape:zoom="1.3034483"
     inkscape:cx="285.84646"
     inkscape:cy="302.63451"
     inkscape:window-x="0"
     inkscape:window-y="0"
     inkscape:current-layer="svg2"
     showgrid="false" />
  <defs
     id="defs4">
    <inkscape:perspective
       sodipodi:type="inkscape:persp3d"
       inkscape:vp_x="0 : 290 : 1"
       inkscape:vp_y="0 : 1000 : 0"
       inkscape:vp_z="580 : 290 : 1"
       inkscape:persp3d-origin="290 : 193.33333 : 1"
       id="perspective2441" />
  </defs>
  <g
     id="g1327">
    <path
       d="M 66.275,1.768 C 24.94,1.768 1.704,23.139 1.704,66.804 L 1.704,516.927 C 1.704,557.771 22.599,579.156 63.896,579.156 L 515.92,579.156 C 557.227,579.156 578.149,558.841 578.149,516.927 L 578.149,66.804 C 578.149,24.203 557.227,1.768 514.628,1.768 C 514.624,1.768 66.133,1.625 66.275,1.768 z "
       style="fill:#111;stroke:#eee;stroke-width:3.40799999"
       id="path1329" />
  </g>
  <path
     style="opacity:0.75;fill:#ffffff;fill-opacity:1;stroke:#ffffff;stroke-width:35.84500122;stroke-linecap:round;stroke-linejoin:round;stroke-miterlimit:4;stroke-dasharray:none;stroke-dashoffset:0;stroke-opacity:1"
     d="M 103.97867,82.41299 L 103.97867,145.33701 L 216.3814,145.33701 C 224.15917,124.71544 229.09653,111.16532 229.42334,109.26998 L 420.41399,107.62293 L 435.00214,145.33701 L 504.61508,145.33701 L 504.61508,82.41299 L 103.97867,82.41299 z"
     id="rect3241"
     sodipodi:nodetypes="ccccccccc" />
  <path
     style="fill:none;fill-opacity:1;fill-rule:evenodd;stroke:#ffffff;stroke-width:20;stroke-linecap:butt;stroke-linejoin:round;stroke-miterlimit:4;stroke-dasharray:none;stroke-opacity:1"
     d="M 227.90625,158.09375 L 187.53125,158.46875 C 185.9283,167.76484 65.21875,517.09375 65.21875,517.09375 L 469.03125,513.6875 L 453.4375,473.375 L 120.34375,476.21875 C 120.34375,476.21875 195.43768,243.83219 227.90625,158.09375 z"
     id="path2443"
     sodipodi:nodetypes="ccccccc" />
  <path
     style="fill:none;fill-opacity:1;fill-rule:evenodd;stroke:#ffffff;stroke-width:20;stroke-linecap:butt;stroke-linejoin:round;stroke-miterlimit:4;stroke-dasharray:none;stroke-opacity:1"
     d="M 242.69409,117.58802 C 241.09113,126.88411 120.35624,476.20649 120.35624,476.20649 L 524.19401,472.79401 L 401.65273,116.06864 L 242.69409,117.58802 z"
     id="path3243"
     sodipodi:nodetypes="ccccc" />
  <path
     sodipodi:nodetypes="ccccc"
     id="path3163"
     d="M 242.69409,117.58802 C 241.09113,126.88411 120.35624,476.20649 120.35624,476.20649 L 524.19401,472.79401 L 401.65273,116.06864 L 242.69409,117.58802 z"
     style="opacity:0.1;fill:#ffffff;fill-opacity:1;fill-rule:evenodd;stroke:#ffffff;stroke-width:20;stroke-linecap:round;stroke-linejoin:round;stroke-miterlimit:4;stroke-dasharray:none;stroke-opacity:1" />
  <path
     id="path3165"
     d="M 227.90625,158.09375 L 187.53125,158.46875 C 185.9283,167.76484 65.21875,517.09375 65.21875,517.09375 L 469.03125,513.6875 L 453.4375,473.375 L 120.34375,476.21875 C 120.34375,476.21875 195.43768,243.83219 227.90625,158.09375 z"
     style="opacity:0.1;fill:#ffffff;fill-opacity:1;fill-rule:evenodd;stroke:#ffffff;stroke-width:20;stroke-linecap:round;stroke-linejoin:round;stroke-miterlimit:4;stroke-dasharray:none;stroke-opacity:1"
     sodipodi:nodetypes="ccccccc" />
  <g
     id="g4372"
     transform="translate(-130.0802,122.26983)" />
  <g
     id="g4998"
     transform="translate(-133.14896,123.86039)">
    <g
       id="g5004">
      <path
         transform="scale(1.0867055,0.9202125)"
         style="font-size:323.14517212px;font-style:normal;font-variant:normal;font-weight:normal;font-stretch:normal;text-align:start;line-height:125%;writing-mode:lr-tb;text-anchor:start;fill:#ffffff;fill-opacity:1;stroke:none;stroke-width:1px;stroke-linecap:butt;stroke-linejoin:miter;stroke-opacity:1;font-family:Arial Unicode MS;-inkscape-font-specification:Arial Unicode MS"
         d="M 428.26872,167.17928 C 428.479,167.2846 429.26793,167.49498 430.63551,167.81042 C 452.19943,172.01817 468.39875,179.69707 479.23351,190.84714 C 490.06797,201.99743 495.48528,216.61889 495.48544,234.71157 C 495.48528,253.22514 489.54202,269.26668 477.65565,282.83622 C 465.76899,296.40579 449.3067,303.76912 428.26872,304.92622 L 428.26872,333.64322 L 411.38565,333.64322 L 411.38565,305.24179 C 389.92673,302.82241 373.46443,295.85354 361.99871,284.33518 C 350.53293,272.81685 344.06372,256.69643 342.59107,235.97386 L 370.9925,230.92471 C 373.20146,246.49296 377.67205,258.48466 384.40429,266.89986 C 391.13642,275.31512 400.1302,280.10129 411.38565,281.25836 L 411.38565,190.84714 C 390.03192,186.21887 374.04298,178.48738 363.41879,167.65264 C 352.79452,156.81816 347.48241,142.88043 347.48243,125.83942 C 347.48241,108.90394 352.74193,94.361371 363.261,82.211664 C 373.78001,70.062393 389.82154,63.040935 411.38565,61.147269 L 411.38565,47.577696 L 428.26872,47.577696 L 428.26872,61.147269 C 446.15099,62.935745 460.2465,68.616025 470.5553,78.188128 C 480.86381,87.760674 487.33302,101.17245 489.96294,118.42349 L 460.45701,122.6837 C 458.77383,111.95446 455.24996,103.46034 449.88537,97.201308 C 444.52054,90.942683 437.315,86.919151 428.26872,85.1307 L 428.26872,167.17928 z M 411.38565,163.70799 L 411.38565,84.815128 C 399.91981,86.813961 391.13642,91.41604 385.03543,98.621379 C 378.93433,105.82712 375.88381,114.16346 375.88386,123.63042 C 375.88381,134.4652 379.03952,143.01192 385.351,149.2706 C 391.66237,155.52958 400.34058,160.34204 411.38565,163.70799 L 411.38565,163.70799 z M 428.26872,281.25836 C 439.31361,279.57533 448.41258,274.76287 455.56565,266.82097 C 462.71847,258.87913 466.29494,248.85974 466.29508,236.76278 C 466.29494,226.13862 463.58629,217.5919 458.16912,211.1226 C 452.75168,204.65348 442.78489,199.15729 428.26872,194.634 L 428.26872,281.25836 z"
         id="text2413" />
    </g>
    <path
       sodipodi:nodetypes="cc"
       id="path4370"
       d="M 455.37677,43.427273 L 455.37677,308.471"
       style="fill:none;fill-rule:evenodd;stroke:#ffffff;stroke-width:30;stroke-linecap:round;stroke-linejoin:round;stroke-miterlimit:4;stroke-dasharray:none;stroke-opacity:1" />
  </g>
</svg>

<svg xmlns="http://www.w3.org/2000/svg" viewBox="0 0 580 580"><path d="m66.28 1.768c-41.34 0-64.57 21.371-64.57 65.04v450.12c0 40.844 20.895 62.23 62.19 62.23h452.02c41.31 0 62.23-20.315 62.23-62.23v-450.12c0-42.601-20.922-65.04-63.52-65.04-.004 0-448.5-.143-448.35 0z" fill="#111" stroke="#eee" stroke-width="3.408"/><g stroke="#fff" stroke-linejoin="round"><path d="m103.98 82.41v62.924h112.4c7.778-20.622 12.715-34.17 13.04-36.07l190.99-1.647 14.588 37.714h69.61v-62.924h-400.64z" opacity=".75" fill="#fff" stroke-linecap="round" stroke-width="35.845"/><g fill-rule="evenodd" stroke-width="20"><g fill="none"><path d="m227.91 158.09l-40.37.375c-1.603 9.296-122.31 358.62-122.31 358.62l403.81-3.406-15.594-40.31-333.09 2.844c0 0 75.09-232.39 107.56-318.12z"/><path d="m242.69 117.59c-1.603 9.296-122.34 358.62-122.34 358.62l403.84-3.412-122.54-356.73-158.96 1.519z"/></g><g fill="#fff" stroke-linecap="round"><path d="m242.69 117.59c-1.603 9.296-122.34 358.62-122.34 358.62l403.84-3.412-122.54-356.73-158.96 1.519z" opacity=".1"/><path d="m227.91 158.09l-40.37.375c-1.603 9.296-122.31 358.62-122.31 358.62l403.81-3.406-15.594-40.31-333.09 2.844c0 0 75.09-232.39 107.56-318.12z" opacity=".1"/></g></g></g><g transform="translate(-133.15 123.86)"><path transform="scale(1.08671.92021)" d="m428.27 167.18c.21.105.999.316 2.367.631 21.564 4.208 37.763 11.887 48.598 23.04 10.834 11.15 16.252 25.772 16.252 43.864 0 18.514-5.943 34.555-17.83 48.12-11.887 13.57-28.349 20.933-49.39 22.09v28.717h-16.883v-28.401c-21.459-2.419-37.921-9.388-49.39-20.907-11.466-11.518-17.935-27.639-19.408-48.36l28.401-5.05c2.209 15.568 6.68 27.56 13.412 35.975 6.732 8.415 15.726 13.201 26.981 14.358v-90.41c-21.354-4.628-37.34-12.36-47.967-23.19-10.624-10.834-15.936-24.772-15.936-41.813 0-16.935 5.26-31.478 15.779-43.628 10.519-12.149 26.561-19.17 48.12-21.06v-13.57h16.883v13.57c17.882 1.788 31.978 7.469 42.29 17.04 10.309 9.573 16.778 22.984 19.408 40.24l-29.506 4.26c-1.683-10.729-5.207-19.223-10.572-25.482-5.365-6.259-12.57-10.282-21.617-12.07v82.05m-16.883-3.471v-78.893c-11.466 1.999-20.249 6.601-26.35 13.806-6.101 7.206-9.152 15.542-9.152 25.01 0 10.835 3.156 19.382 9.467 25.64 6.311 6.259 14.99 11.07 26.03 14.437m16.883 117.55c11.04-1.683 20.14-6.495 27.3-14.437 7.153-7.942 10.729-17.961 10.729-30.06 0-10.624-2.709-19.17-8.126-25.64-5.417-6.469-15.384-11.965-29.9-16.489v86.62" fill="#fff"/><path d="m455.38 43.43v265.04" fill="none" fill-rule="evenodd" stroke="#fff" stroke-linejoin="round" stroke-linecap="round" stroke-width="30"/></g></svg>
